X: 1540
T: Ol Hümâpervâze
C: Ahmet Avni Konuk
O: Turkey
F: http://compmusic.upf.edu/node/140
N: evic--kupe--agirevfer--ol--ahmet_avni_konuk
N: makam= evic
N: form= kupe
N: usul= agirevfer = 9/4
M: 9/4
L: 1/16
K: C _1/4B ^f ^c 
Q: 1/4=72
%%MIDI tuningsystem comma53
f4 f8 f2g2 f3^e d2gf e4 f4 z4  | z4 e2^3/4f2 g2a2 g2^2/4f2 e2d4e=f edcB c2d2 c4  | 
w:  Ah  ol  hü *  mâ *  *  *  *  per  |  vâ *  *  *  ze  *  Evc_ *  *  *  i   | 
z4 d8 ^e4 f2e2 d4 g4 g6fe  | f4 a2b2 =c'2ba a4 a2g2 g2gf f2f^e f4 z4  | 
w:  vah şet  ol *  *  muş  |  *  ken  *  *  *  *  me kân    | 
z4 e2^3/4f2 g4 g2f2 g2f2 g2a2 g2^2/4f2 e4 e2d2  | \
w:  Din *  *  le *  se  *  *  *  sâz_  | 
z4 d2e2 d4 =c4 d2e^3/4f ag=fe edc_2/4B A4 z4  | 
w:  ı  *  *  di li  *  *  *  *  *  *  â  | 
z4 A2G2 A4 B4 z2A=c B2A2 A3G F4 B4  | \
w:  gû *  *  şum  ey *  *  *  ler   | 
z4 A2B2 =c4 B2A2 A2G2 G2F2 F8 z4  | 
w:  â *  *  şi *  yân    | 
|


